tools/download-figma-icons/icons/outlined-medium/show-up.svg

<svg width="24" height="24" viewBox="0 0 24 24" fill="none" xmlns="http://www.w3.org/2000/svg">
<path fill-rule="evenodd" clip-rule="evenodd" d="M12.0542 22.4995C8.71599 22.4995 6.00024 19.8955 6.00024 16.6952V15.2747V13.1027C6.00024 12.907 6.17799 12.748 6.39699 12.748H8.65224H12.0542H13.6712C13.7342 12.748 13.7972 12.757 13.8595 12.7675C13.879 12.769 13.8962 12.775 13.915 12.778C14.1242 12.826 14.32 12.931 14.4655 13.0817C14.53 13.1485 14.5982 13.243 14.6462 13.3585C14.6747 13.4387 14.6965 13.5212 14.6995 13.609C14.701 13.6315 14.7062 13.6502 14.7055 13.6727C14.6965 13.8902 14.6012 14.0995 14.4437 14.254C14.2585 14.428 14.0155 14.5247 13.7575 14.5247H8.65224C8.23749 14.5247 7.90224 14.86 7.90224 15.2747C7.90224 15.6895 8.23749 16.0247 8.65224 16.0247H9.62574C11.89 16.0247 13.7327 17.788 13.7327 19.9547C13.7327 20.3695 14.0687 20.7047 14.4827 20.7047C14.8975 20.7047 15.2327 20.3695 15.2327 19.9547C15.2327 18.409 14.5585 17.0155 13.4837 16.0247H13.7575C14.4017 16.0247 15.0122 15.7817 15.4832 15.334C15.7585 15.0655 15.952 14.7392 16.0712 14.3882H17.1587C17.4955 14.3882 17.8165 14.3192 18.1082 14.1962V16.6952C18.1082 19.8955 15.3925 22.4995 12.0542 22.4995ZM6.95274 1.50024C7.21074 1.50024 7.45299 1.59699 7.63224 1.76949C7.80624 1.93899 7.90224 2.15949 7.90224 2.39049V7.48149V11.248H6.39699C6.26049 11.248 6.12849 11.2637 6.00024 11.2907V2.39049C6.00024 1.89924 6.42774 1.50024 6.95274 1.50024ZM10.3547 6.59423C10.6135 6.59423 10.8565 6.69098 11.0342 6.85898C11.2082 7.02923 11.3042 7.25048 11.3042 7.48148V8.33423V11.248H9.40224V7.48148C9.40224 6.99173 9.82974 6.59423 10.3547 6.59423ZM13.7575 7.44399C14.0147 7.44399 14.2577 7.54074 14.4362 7.71249C14.6102 7.88274 14.7062 8.104 14.7062 8.33424V11.4347C14.4137 11.3147 14.0935 11.248 13.7575 11.248H13.6712H12.8042V8.33424C12.8042 7.843 13.2317 7.44399 13.7575 7.44399ZM16.2078 9.31599C16.2078 8.80824 16.6203 8.39574 17.1903 8.39574C17.6973 8.39574 18.1098 8.80824 18.1098 9.31599V11.9372C18.1098 12.4615 17.683 12.8882 17.1588 12.8882H16.2078V9.31599ZM19.6097 9.31599C19.6097 7.98174 18.5245 6.89574 17.1272 6.89574C16.6847 6.89574 16.2752 7.02399 15.9175 7.23249C15.802 7.01724 15.6632 6.81324 15.4802 6.63624C15.0175 6.18999 14.4055 5.94399 13.7575 5.94399C13.2857 5.94399 12.8492 6.07974 12.475 6.30624C12.3647 6.11799 12.2372 5.93874 12.0745 5.77974C11.611 5.33724 11.0005 5.09424 10.3547 5.09424C10.0172 5.09424 9.69474 5.16099 9.40224 5.28174V2.39049C9.40224 1.75074 9.14499 1.14849 8.67624 0.692494C8.21349 0.246244 7.60149 0.000244141 6.95274 0.000244141C5.60049 0.000244141 4.50024 1.07274 4.50024 2.39049V13.1027V15.2747V16.6952C4.50024 20.7227 7.88874 23.9995 12.0542 23.9995C16.2197 23.9995 19.6082 20.7227 19.6082 16.6952V12.3617C19.6082 12.3137 19.5895 12.271 19.5805 12.2252C19.5925 12.1292 19.6097 12.0355 19.6097 11.9372V9.31599Z" fill="black"/>
</svg>

<svg width="24" height="24" viewBox="0 0 24 24" fill="none" xmlns="http://www.w3.org/2000/svg"><path fill-rule="evenodd" clip-rule="evenodd" d="M12.054 22.5C8.716 22.5 6 19.895 6 16.695v-3.592c0-.196.178-.355.397-.355h7.274c.063 0 .126.009.189.02.019.001.036.007.055.01.21.048.405.153.55.304a.904.904 0 0 1 .181.276.83.83 0 0 1 .053.251c.002.023.007.041.007.064a.87.87 0 0 1-.262.581.997.997 0 0 1-.687.27H8.652a.75.75 0 1 0 0 1.5h.974c2.264 0 4.107 1.764 4.107 3.93a.75.75 0 1 0 1.5 0c0-1.545-.675-2.939-1.75-3.93h.274a2.49 2.49 0 0 0 1.726-.69 2.38 2.38 0 0 0 .588-.946h1.088c.337 0 .658-.069.95-.192v2.5c0 3.2-2.717 5.803-6.055 5.803Zm-5.101-21c.258 0 .5.097.68.27.173.169.27.39.27.62v8.858H6.396a1.92 1.92 0 0 0-.397.043v-8.9c0-.492.428-.89.953-.89Zm3.402 5.094c.258 0 .502.097.68.265a.87.87 0 0 1 .27.622v3.767H9.401V7.481c0-.49.428-.887.953-.887Zm3.402.85c.258 0 .5.097.68.268.173.17.27.392.27.622v3.1a2.494 2.494 0 0 0-.95-.186h-.953V8.334c0-.491.428-.89.954-.89Zm2.45 1.872c0-.508.413-.92.983-.92a.92.92 0 0 1 .92.92v2.621a.952.952 0 0 1-.951.951h-.951V9.316Zm3.403 0c0-1.334-1.085-2.42-2.483-2.42a2.4 2.4 0 0 0-1.21.336 2.38 2.38 0 0 0-.437-.596 2.469 2.469 0 0 0-3.005-.33 2.466 2.466 0 0 0-.4-.526 2.477 2.477 0 0 0-1.72-.686c-.338 0-.66.067-.953.188V2.39c0-.64-.257-1.242-.726-1.698A2.47 2.47 0 0 0 6.953 0C5.6 0 4.5 1.073 4.5 2.39v14.305C4.5 20.723 7.89 24 12.054 24c4.166 0 7.554-3.277 7.554-7.305v-4.333c0-.048-.018-.091-.027-.137.012-.096.029-.19.029-.288V9.316Z" fill="currentColor"/></svg>
